usr/share/icons/biglinux-icons-material-dark/16/actions/layer-bottom.svg

<svg xmlns="http://www.w3.org/2000/svg" viewBox="0 0 16 16">
  <defs id="defs3051">
    <style type="text/css" id="current-color-scheme">
      .ColorScheme-Text {
        color:#dedede;
      }
      .ColorScheme-Highlight {
        color:#3daee9;
      }
      </style>
  </defs>
  <path 
        style="fill:currentColor;fill-opacity:1;stroke:none"
        d="M 3.9980469 3 L 3.9980469 11.029297 L 2.6542969 9.5917969 L 1.9980469 10.279297 L 4.3105469 12.779297 L 4.4980469 12.998047 L 4.6875 12.779297 L 7 10.279297 L 6.34375 9.5917969 L 5 11.029297 L 5 3 L 3.9980469 3 z M 10 3 L 7 6 L 11 6 L 14 3 L 10 3 z M 10 7 L 7 10 L 11 10 L 14 7 L 10 7 z "
        class="ColorScheme-Text"
        />
  <path
        style="fill:currentColor;fill-opacity:1;stroke:none"
        d="m 11,14 3,-3 -6,0 -3,3 z"
        class="ColorScheme-Highlight"
      />
</svg>

<svg xmlns="http://www.w3.org/2000/svg" viewBox="0 0 16 16">
<defs id="defs3051">
<style id="current-color-scheme" type="text/css">
.ColorScheme-Text{color:#dedede}.ColorScheme-Highlight{color:#3daee9}
</style>
</defs>
<path d="M3.998 3v8.03L2.654 9.591l-.656.687 2.313 2.5.187.219.19-.219L7 10.28l-.656-.687L5 11.029V3zM10 3 7 6h4l3-3zm0 4-3 3h4l3-3z" class="ColorScheme-Text" style="fill:currentColor;fill-opacity:1;stroke:none"/>
<path d="m11 14 3-3H8l-3 3z" class="ColorScheme-Highlight" style="fill:currentColor;fill-opacity:1;stroke:none"/>
</svg>
